web/packages/design/src/ResourceIcon/assets/assemble-light.svg

<svg width="72" height="72" viewBox="0 0 72 72" fill="none" xmlns="http://www.w3.org/2000/svg">
<g clip-path="url(#clip0_15935_6796)">
<path d="M7.0752 15.3848V53.528L14.3087 57.6361V44.9442L31.6979 55.9349V67.5827L39.0081 72.0003H39.0752V34.6884L7.0752 15.3848ZM14.3087 27.777L31.6979 38.777V47.4092L14.3087 36.9116V27.777Z" fill="#071447"/>
<path d="M64.9216 19.1929V56.1351L57.9196 60.3082V23.3659L26.1523 3.93318L32.7525 0.000488281L64.9216 19.1929Z" fill="#0FC4FA"/>
<path d="M51.9987 26.5836L19.8298 7.38525L13.2295 11.3288L44.9967 30.7677V67.6929L51.8073 63.634L51.9987 63.5185V26.5836Z" fill="#2881FF"/>
</g>
<defs>
<clipPath id="clip0_15935_6796">
<rect width="72" height="72" fill="white" transform="translate(0 0.000488281)"/>
</clipPath>
</defs>
</svg>

<svg xmlns="http://www.w3.org/2000/svg" width="72" height="72" fill="none" viewBox="0 0 72 72"><g clip-path="url(#a)"><path fill="#071447" d="M7.075 15.385v38.143l7.234 4.108V44.944l17.389 10.99v11.649L39.008 72h.067V34.688zm7.234 12.392 17.389 11v8.632l-17.39-10.497z"/><path fill="#0fc4fa" d="M64.922 19.193v36.942l-7.002 4.173V23.366L26.152 3.933 32.752 0z"/><path fill="#2881ff" d="M51.999 26.584 19.829 7.385l-6.6 3.944 31.768 19.439v36.925l6.81-4.059.192-.115z"/></g><defs><clipPath id="a"><path fill="#fff" d="M0 0h72v72H0z"/></clipPath></defs></svg>
